src/main/resources/icons/DevkitIcons/icons/gutter/plugin.svg

<svg xmlns="http://www.w3.org/2000/svg" width="12" height="12" viewBox="0 0 12 12">
  <path fill="#6E6E6E" fill-rule="evenodd" d="M1.71428571,4.27714286 C1.71428571,4.55314286 1.86942857,4.80685714 2.11457143,4.932 L2.382,5.06657143 C2.59028571,5.172 2.81228571,5.16085714 3,5.07514286 L3,3.86228571 L3,2.99485714 L3,1.782 C2.81228571,1.69542857 2.59028571,1.68514286 2.382,1.79057143 L2.11457143,1.92514286 C1.86942857,2.04942857 1.71428571,2.30314286 1.71428571,2.58 L1.71428571,2.99485714 L1.71428571,3.86228571 L1.71428571,4.27714286 Z M4.28571429,11.1428571 C2.66657143,11.1428571 0.838285714,9.276 0.857142857,7.71428571 L0.857142857,6 C0.857142857,4.782 1.34228571,4.28571429 1.71428571,4.28571429 L1.71428571,2.57142857 C0.771428571,2.57142857 0,4.35342857 0,6 L0,7.71428571 C0,10.0568571 2.22857143,12 4.28571429,12 L8.57142857,12 L8.57142857,11.1428571 L4.28571429,11.1428571 Z M8,0 L8,6.85714286 L5.26028571,6.85714286 C4.24885714,6.85714286 3.42857143,5.93485714 3.42857143,4.79657143 L3.42857143,2.05971429 C3.42857143,0.922285714 4.24885714,0 5.26028571,0 L8,0 Z M9,6 L12,6 L12,5.1 L9,5.1 L9,6 Z M9,1.9 L12,1.9 L12,1 L9,1 L9,1.9 Z"/>
</svg>

<svg xmlns="http://www.w3.org/2000/svg" width="12" height="12" viewBox="0 0 12 12"><rect id="frame" width="12" height="12" fill="none"/><path fill="#6E6E6E" fill-rule="evenodd" d="M1.714 4.277c0 .276.155.53.4.655l.268.135c.208.105.43.094.618.008V1.782a.7.7 0 0 0-.618.009l-.267.134a.734.734 0 0 0-.4.655v1.697zm2.572 6.866c-1.62 0-3.448-1.867-3.429-3.429V6c0-1.218.485-1.714.857-1.714V2.57C.771 2.571 0 4.353 0 6v1.714C0 10.057 2.229 12 4.286 12H8.57v-.857H4.286zM8 0v6.857H5.26c-1.011 0-1.831-.922-1.831-2.06V2.06C3.429.922 4.249 0 5.26 0H8zm1 6h3v-.9H9V6zm0-4.1h3V1H9v.9z"/></svg>
